!!!COM: Gounod, Charles-Francois
!!!CDT: 1818-1893
!!!OTL: National Anthem, Vatican City State - Inno e Marcia Pontificale (Hymn and Pontifical March)
!!!ENC: Davis, Matthew J.
!!Vocal Line Only
**kern
*clefG2
*k[b-]
*F:
*M4/4
=1-
2cc
[4cc
8.cc]
16cc
=2
2ff
[4b-
8.b-]
16b-
=3
4b-
4a
4g
4f
=4
4.cc
8b-
[4a
8a]
8r
=5
2a
[4a
8a]
16a
=6
2dd
8g
8r
4a
=7
4b-
4a
4g
4f
=8
[4dd
8.dd]
16cc
2cc
=9
2cc
[4cc
8.cc]
16cc
=10
2ff
[4b-
8.b-
16b-
=11
4b-
4a
4g
4f
=12
4.cc
8b-
[4a
8a]
8r
=13
2a
[4a
8.a]
16a
=14
2dd
8g
8r
4a
=15
4b-
4a
4g
4f
=16
[4dd
8dd]
16cc
2cc
=17
[2f
4f]
8e
8g
=18
2f
4f
8f
8g
=19
4a
8a
8b-
4cc
4dd
=20
4g
4g
4r
=21
[2f
4f]
8e
8g
=22
2f
4f
8f
8g
=23
4a
4a
4ff
4ee
=24
4.dd
8ee
2cc
=25
[2f
4f]
8e
8g
=26
2f
4f
8r
8g
=27
4a
8a
8b-
4cc
4dd
=28
2g
4g
4r
=29
[2f
4f]
8e
8g
=30
2f
4f
8r
8g
=31
4a
4a
4ff
4ee
=32
4.dd
8ee
[4cc
8cc]
=33
[2g
4g]
8a
8b-
=34
[2g
4g]
8a
8b-
=35
4g
8g
8a
4b-
4cc
=36
2dd
4b-
4r
=37
4.b-
8cc
4dd
4ee
=38
4ff
8ee
8dd
4cc
4a
=39
4.g
8cc
4ee
8.dd
16ee
=40
2dd
4cc
4r
=41
!Marcia Pontificale
2f
4c
8.f
16g
=42
2a
4f
8.a
16b-
=43
4cc
4cc
4.dd
16cc
=44
2cc
4a
=45
[4cc
8.cc]
16cc
4a
8.f
16a
=46
[4cc
8.cc]
16cc
4a
8.f
16a
=47
4g
8.cc
16dd
4cc
4bn
=48
2cc
4cc
4r
=49
2dd
4cc
8.a
16c
=50
4cc
4b-
4a
4r
=51
4.dd
8cc
8dd
8cc
8b-
8a
=52
4b-
4a
4g
4r
=53
4f
4f
8d
8e
8f
8g
=54
4.a
8b-
4cc
4dd
=55
[4f
8.f]
16a
[4g
8.g]
16f
=56
2.f
4r
=57
2f
4c
8.f
16g
=58
2a
4f
8.a
16b-
=59
4cc
4cc
4.dd
8cc
=60
2cc
2a
=61
2cc
4a
8.f
16a
=62
2cc
4a
8.f
16a
=63
4g
8.cc
16dd
4cc
4bn
=64
[2cc
4cc]
4r
=65
2dd
4cc
8.a
16c
=66
4cc
4b-
4a
4r
=67
4.dd
8cc
8dd
8cc
8b-
8a
=68
4b-
4a
4g
4r
=69
4f
4f
8d
8e
8f
8g
=70
4.a
8b-
4cc
4dd
=71
[4f
8.f]
16a
[4g
8.g]
16f
=72
[2f
4f]
4r
==|!
*-
